; generated by PrusaSlicer 2.9.2 on 2025-05-15 at 22:00:31 UTC

; 

; external perimeters extrusion width = 0.45mm
; perimeters extrusion width = 0.45mm
; infill extrusion width = 0.45mm
; solid infill extrusion width = 0.45mm
; top infill extrusion width = 0.40mm
; first layer extrusion width = 0.42mm

M201 X1000 Y1000 Z1000 E5000 ; sets maximum accelerations, mm/sec^2
M203 X200 Y200 Z12 E120 ; sets maximum feedrates, mm / sec
M204 S1250 T1250 ; sets acceleration (S) and retract acceleration (R), mm/sec^2
M205 X8.00 Y8.00 Z0.40 E1.50 ; sets the jerk limits, mm/sec
M205 S0 T0 ; sets the minimum extruding and travel feed rate, mm/sec

; printing object 2 sqcm 0.5 mm wall Flow Frame.stl id:0 copy 0
; stop printing object 2 sqcm 0.5 mm wall Flow Frame.stl id:0 copy 0

;TYPE:Custom
; Initial setups
G90 ; use absolute coordinates
M83 ; extruder relative mode
M220 S100 ; reset speed factor to 100%
M221 S100 ; reset extrusion rate to 100%

; Set the heating
M190 S85 ; wait for bed to heat up
M104 S235 ; start nozzle heating but don't wait

; Home
G1 Z3 F3000 ; move z up little to prevent scratching of surface
G28 ; home all axes
G1 X3 Y3 F5000 ; move to corner of the bed to avoid ooze over centre

; Wait for final heating
M109 S235 ; wait for the nozzle to heat up
M190 S85 ; wait for the bed to heat up

; Return to prime position, Prime line routine
G92 E0 ; Reset Extruder
G1 Z3 F3000 ; move z up little to prevent scratching of surface
G1 X10 Y.5 Z0.25 F5000.0 ; Move to start position
G1 X100 Y.5 Z0.25 F1500.0 E15 ; Draw the first line
G1 X100 Y.2 Z0.25 F5000.0 ; Move to side a little
G1 X10 Y.2 Z0.25 F1500.0 E30 ; Draw the second line
G92 E0 ; Reset Extruder
M221 S95
G21 ; set units to millimeters
G90 ; use absolute coordinates
M83 ; use relative distances for extrusion
; Filament gcode
M107 ; disable fan
;LAYER_CHANGE
;Z:0.25
;HEIGHT:0.25
G1 E-.8 F2100 ; retract
G1 Z.25 F7800 ; lift
G1 X145.339 Y63.444 ; move to first layer point
G1 Z.25 ; move to first layer point
G1 E.8 F2100 ;  ; unretract
M204 S500 ; adjust acceleration
;TYPE:Skirt/Brim
;WIDTH:0.42
G1 F1200
G1 X146.681 Y61.078 E.10875 ; skirt
G1 X148.059 Y59.207 E.0929 ; skirt
G1 X149.459 Y57.671 E.08309 ; skirt
G1 X151.004 Y56.279 E.08315 ; skirt
G1 X152.804 Y54.962 E.08917 ; skirt
G1 X154.599 Y53.91 E.08318 ; skirt
G1 X156.545 Y53.016 E.08562 ; skirt
G1 X158.946 Y52.22 E.10113 ; skirt
G1 X160.995 Y51.782 E.08377 ; skirt
G1 X162.587 Y51.584 E.06414 ; skirt
G1 X164.245 Y51.508 E.06636 ; skirt
G1 X204.55 Y51.508 E1.61145 ; skirt
G1 X206.319 Y51.594 E.07081 ; skirt
G1 X208.196 Y51.851 E.07575 ; skirt
G1 X209.747 Y52.194 E.06351 ; skirt
G1 X211.357 Y52.683 E.06727 ; skirt
G1 X213.146 Y53.398 E.07703 ; skirt
G1 X214.567 Y54.108 E.06351 ; skirt
G1 X216.01 Y54.973 E.06726 ; skirt
G1 X217.571 Y56.102 E.07702 ; skirt
G1 X218.777 Y57.136 E.06351 ; skirt
G1 X220.132 Y58.507 E.07707 ; skirt
G1 X221.207 Y59.801 E.06726 ; skirt
G1 X222.158 Y61.145 E.06583 ; skirt
G1 X223.106 Y62.755 E.0747 ; skirt
G1 X223.835 Y64.272 E.06729 ; skirt
G1 X224.431 Y65.806 E.0658 ; skirt
G1 X224.96 Y67.599 E.07474 ; skirt
G1 X225.389 Y69.846 E.09146 ; skirt
G1 X225.578 Y72.415 E.10299 ; skirt
G1 X225.551 Y113.804 E1.65479 ; skirt
G1 X225.209 Y116.638 E.11413 ; skirt
G1 X224.893 Y118.04 E.05746 ; skirt
G1 X224.454 Y119.506 E.06118 ; skirt
G1 X223.431 Y121.988 E.10733 ; skirt
G1 X222.114 Y124.302 E.10645 ; skirt
G1 X220.638 Y126.29 E.099 ; skirt
G1 X218.872 Y128.156 E.10272 ; skirt
G1 X217.14 Y129.612 E.09047 ; skirt
G1 X215.238 Y130.889 E.09159 ; skirt
G1 X213.212 Y131.952 E.09148 ; skirt
G1 X210.87 Y132.86 E.10043 ; skirt
G1 X208.682 Y133.435 E.09045 ; skirt
G1 X206.367 Y133.782 E.09359 ; skirt
G1 X204.482 Y133.873 E.07545 ; skirt
G1 X163.141 Y133.835 E1.65288 ; skirt
G1 X161.625 Y133.691 E.06088 ; skirt
G1 X160.208 Y133.455 E.05743 ; skirt
G1 X157.582 Y132.746 E.10875 ; skirt
G1 X155.152 Y131.749 E.10501 ; skirt
G1 X152.785 Y130.407 E.10879 ; skirt
G1 X150.914 Y129.028 E.09293 ; skirt
G1 X149.271 Y127.52 E.08916 ; skirt
G1 X147.588 Y125.58 E.10268 ; skirt
G1 X146.198 Y123.531 E.09899 ; skirt
G1 X145.159 Y121.555 E.08926 ; skirt
G1 X144.228 Y119.163 E.10262 ; skirt
G1 X143.659 Y117.007 E.08915 ; skirt
G1 X143.297 Y114.558 E.09898 ; skirt
G1 X143.215 Y112.775 E.07136 ; skirt
G1 X143.252 Y71.434 E1.65288 ; skirt
G1 X143.397 Y69.918 E.06089 ; skirt
G1 X143.633 Y68.501 E.05743 ; skirt
G1 X144.341 Y65.874 E.10878 ; skirt
G1 X145.316 Y63.5 E.10261 ; skirt
M204 S1000 ; adjust acceleration
G1 E-.8 F2100 ; retract
G1 X151.232 Y66.142 F7800 ; move to first brim point
G1 E.8 F2100 ;  ; unretract
M204 S500 ; adjust acceleration
G1 F1200
G1 X151.271 Y66.055 E.00381 ; brim
G1 X152.001 Y64.77 E.05909 ; brim
G1 X153.115 Y63.258 E.07509 ; brim
G1 X154.205 Y62.087 E.06396 ; brim
G1 X155.324 Y61.114 E.05929 ; brim
G1 X156.51 Y60.275 E.05808 ; brim
G1 X157.796 Y59.547 E.05908 ; brim
G1 X159.153 Y58.949 E.05929 ; brim
G1 X160.558 Y58.492 E.05907 ; brim
G1 X162.001 Y58.179 E.05903 ; brim
G1 X163.459 Y58.011 E.05868 ; brim
G1 X204.88 Y57.992 E1.65607 ; brim
G1 X206.167 Y58.089 E.0516 ; brim
G1 X207.449 Y58.302 E.05196 ; brim
G1 X208.703 Y58.626 E.05178 ; brim
G1 X209.933 Y59.064 E.0522 ; brim
G1 X211.162 Y59.63 E.0541 ; brim
G1 X212.344 Y60.309 E.0545 ; brim
G1 X214.326 Y61.837 E.10006 ; brim
G1 X215.323 Y62.843 E.05663 ; brim
G1 X216.174 Y63.878 E.05357 ; brim
G1 X216.991 Y65.091 E.05847 ; brim
G1 X217.662 Y66.334 E.05648 ; brim
G1 X218.494 Y68.49 E.0924 ; brim
G1 X218.842 Y69.918 E.05876 ; brim
G1 X219.029 Y71.188 E.05132 ; brim
G1 X219.106 Y72.565 E.05514 ; brim
G1 X219.099 Y113.23 E1.62585 ; brim
G1 X218.785 Y115.758 E.10185 ; brim
G1 X218.104 Y118.026 E.09468 ; brim
G1 X217.524 Y119.325 E.05688 ; brim
G1 X216.793 Y120.61 E.05911 ; brim
G1 X215.68 Y122.122 E.07506 ; brim
G1 X214.584 Y123.299 E.0643 ; brim
G1 X213.39 Y124.329 E.06305 ; brim
G1 X212.084 Y125.23 E.06344 ; brim
G1 X210.69 Y125.984 E.06336 ; brim
G1 X209.207 Y126.589 E.06404 ; brim
G1 X207.69 Y127.024 E.0631 ; brim
G1 X206.121 Y127.296 E.06367 ; brim
G1 X204.539 Y127.398 E.06338 ; brim
G1 X163.622 Y127.378 E1.63592 ; brim
G1 X162.326 Y127.252 E.05206 ; brim
G1 X161.063 Y127.019 E.05135 ; brim
G1 X158.741 Y126.269 E.09756 ; brim
G1 X157.573 Y125.719 E.05162 ; brim
G1 X156.448 Y125.068 E.05197 ; brim
G1 X154.961 Y123.97 E.0739 ; brim
G1 X153.788 Y122.877 E.0641 ; brim
G1 X152.759 Y121.683 E.06302 ; brim
G1 X151.857 Y120.376 E.06349 ; brim
G1 X151.103 Y118.982 E.06336 ; brim
G1 X150.505 Y117.519 E.06319 ; brim
G1 X150.064 Y115.986 E.06378 ; brim
G1 X149.791 Y114.414 E.06379 ; brim
G1 X149.689 Y112.835 E.06326 ; brim
G1 X149.702 Y72.035 E1.63124 ; brim
G1 X150.009 Y69.621 E.09729 ; brim
G1 X150.691 Y67.354 E.09465 ; brim
G1 X151.208 Y66.197 E.05067 ; brim
M204 S1000 ; adjust acceleration
G1 X151.542 Y66.346 F7800 ; move to first brim point
M204 S500 ; adjust acceleration
G1 F1200
G1 X151.602 Y66.213 E.00583 ; brim
G1 X152.303 Y64.979 E.05674 ; brim
G1 X153.403 Y63.484 E.07421 ; brim
G1 X154.466 Y62.344 E.06232 ; brim
G1 X155.557 Y61.397 E.05776 ; brim
G1 X156.714 Y60.58 E.05663 ; brim
G1 X157.968 Y59.87 E.05762 ; brim
G1 X159.292 Y59.288 E.05782 ; brim
G1 X160.644 Y58.848 E.05685 ; brim
G1 X162.052 Y58.541 E.05762 ; brim
G1 X163.47 Y58.378 E.05707 ; brim
G1 X204.86 Y58.358 E1.65483 ; brim
G1 X206.116 Y58.451 E.05035 ; brim
G1 X207.365 Y58.659 E.05062 ; brim
G1 X208.603 Y58.979 E.05112 ; brim
G1 X209.803 Y59.406 E.05092 ; brim
G1 X211.001 Y59.959 E.05275 ; brim
G1 X212.15 Y60.62 E.053 ; brim
G1 X214.092 Y62.12 E.09811 ; brim
G1 X215.056 Y63.094 E.05479 ; brim
G1 X215.885 Y64.104 E.05224 ; brim
G1 X216.673 Y65.274 E.0564 ; brim
G1 X217.324 Y66.476 E.05465 ; brim
G1 X218.148 Y68.61 E.09146 ; brim
G1 X218.481 Y69.98 E.05637 ; brim
G1 X218.663 Y71.217 E.04999 ; brim
G1 X218.739 Y72.57 E.05418 ; brim
G1 X218.733 Y113.219 E1.62521 ; brim
G1 X218.423 Y115.701 E.10001 ; brim
G1 X217.766 Y117.884 E.09115 ; brim
G1 X217.193 Y119.168 E.05622 ; brim
G1 X216.492 Y120.402 E.05674 ; brim
G1 X215.391 Y121.896 E.0742 ; brim
G1 X214.323 Y123.042 E.06263 ; brim
G1 X213.159 Y124.044 E.06141 ; brim
G1 X211.884 Y124.923 E.06192 ; brim
G1 X210.525 Y125.657 E.06175 ; brim
G1 X209.097 Y126.24 E.06167 ; brim
G1 X207.617 Y126.665 E.06156 ; brim
G1 X206.087 Y126.931 E.06209 ; brim
G1 X204.533 Y127.032 E.06226 ; brim
G1 X163.631 Y127.012 E1.63532 ; brim
G1 X162.385 Y126.89 E.05006 ; brim
G1 X161.164 Y126.666 E.04963 ; brim
G1 X158.886 Y125.932 E.09569 ; brim
G1 X157.749 Y125.398 E.05022 ; brim
G1 X156.657 Y124.767 E.05042 ; brim
G1 X155.188 Y123.681 E.07304 ; brim
G1 X154.045 Y122.616 E.06246 ; brim
G1 X153.043 Y121.451 E.06144 ; brim
G1 X152.165 Y120.176 E.06189 ; brim
G1 X151.43 Y118.817 E.06177 ; brim
G1 X150.848 Y117.39 E.06162 ; brim
G1 X150.419 Y115.894 E.06222 ; brim
G1 X150.156 Y114.381 E.0614 ; brim
G1 X150.055 Y112.829 E.06218 ; brim
G1 X150.069 Y72.047 E1.63053 ; brim
G1 X150.371 Y69.679 E.09544 ; brim
G1 X151.029 Y67.496 E.09116 ; brim
G1 X151.518 Y66.401 E.04795 ; brim
M204 S1000 ; adjust acceleration
G1 X151.852 Y66.55 F7800 ; move to first brim point
M204 S500 ; adjust acceleration
G1 F1200
G1 X151.933 Y66.37 E.00789 ; brim
G1 X152.616 Y65.169 E.05524 ; brim
G1 X153.692 Y63.71 E.07248 ; brim
G1 X154.727 Y62.601 E.06065 ; brim
G1 X155.79 Y61.68 E.05623 ; brim
G1 X156.917 Y60.885 E.05514 ; brim
G1 X158.14 Y60.193 E.05618 ; brim
G1 X159.431 Y59.627 E.05636 ; brim
G1 X160.749 Y59.199 E.0554 ; brim
G1 X162.121 Y58.901 E.05613 ; brim
G1 X163.501 Y58.743 E.05553 ; brim
G1 X204.84 Y58.724 E1.65279 ; brim
G1 X206.064 Y58.814 E.04907 ; brim
G1 X207.281 Y59.015 E.04932 ; brim
G1 X208.488 Y59.327 E.04984 ; brim
G1 X209.657 Y59.742 E.0496 ; brim
G1 X210.826 Y60.281 E.05147 ; brim
G1 X211.957 Y60.931 E.05215 ; brim
G1 X213.858 Y62.402 E.0961 ; brim
G1 X214.789 Y63.346 E.05301 ; brim
G1 X215.596 Y64.33 E.05088 ; brim
G1 X216.355 Y65.456 E.05429 ; brim
G1 X216.987 Y66.619 E.05292 ; brim
G1 X217.802 Y68.731 E.09051 ; brim
G1 X218.12 Y70.042 E.05394 ; brim
G1 X218.298 Y71.246 E.04866 ; brim
G1 X218.373 Y72.575 E.05322 ; brim
G1 X218.367 Y113.208 E1.62457 ; brim
G1 X218.066 Y115.62 E.09718 ; brim
G1 X217.422 Y117.757 E.08924 ; brim
G1 X216.862 Y119.01 E.05487 ; brim
G1 X216.179 Y120.211 E.05524 ; brim
G1 X215.103 Y121.67 E.07248 ; brim
G1 X214.062 Y122.784 E.06096 ; brim
G1 X212.927 Y123.76 E.05985 ; brim
G1 X211.701 Y124.605 E.05953 ; brim
G1 X210.377 Y125.322 E.0602 ; brim
G1 X208.986 Y125.891 E.06009 ; brim
G1 X207.526 Y126.31 E.06073 ; brim
G1 X206.034 Y126.569 E.06054 ; brim
G1 X204.527 Y126.666 E.06038 ; brim
G1 X163.657 Y126.646 E1.63404 ; brim
G1 X162.443 Y126.528 E.04877 ; brim
G1 X161.242 Y126.308 E.04882 ; brim
G1 X159.032 Y125.596 E.09283 ; brim
G1 X157.912 Y125.07 E.04947 ; brim
G1 X156.85 Y124.455 E.04907 ; brim
G1 X155.414 Y123.393 E.07141 ; brim
G1 X154.303 Y122.355 E.06079 ; brim
G1 X153.327 Y121.22 E.05985 ; brim
G1 X152.472 Y119.977 E.06032 ; brim
G1 X151.757 Y118.652 E.0602 ; brim
G1 X151.191 Y117.261 E.06004 ; brim
G1 X150.774 Y115.803 E.06063 ; brim
G1 X150.519 Y114.328 E.05985 ; brim
G1 X150.422 Y112.823 E.0603 ; brim
G1 X150.434 Y72.081 E1.62893 ; brim
G1 X150.729 Y69.76 E.09354 ; brim
G1 X151.372 Y67.623 E.08922 ; brim
G1 X151.828 Y66.605 E.0446 ; brim
M204 S1000 ; adjust acceleration
G1 X152.162 Y66.755 F7800 ; move to first brim point
M204 S500 ; adjust acceleration
G1 F1200
G1 X152.263 Y66.528 E.00993 ; brim
G1 X152.929 Y65.36 E.05376 ; brim
G1 X153.98 Y63.936 E.07076 ; brim
G1 X154.988 Y62.859 E.05898 ; brim
G1 X156.023 Y61.963 E.05473 ; brim
G1 X157.121 Y61.19 E.05369 ; brim
G1 X158.312 Y60.517 E.05469 ; brim
G1 X159.569 Y59.966 E.05487 ; brim
G1 X160.853 Y59.551 E.05395 ; brim
G1 X162.189 Y59.261 E.05466 ; brim
G1 X163.533 Y59.108 E.05408 ; brim
G1 X204.82 Y59.09 E1.65072 ; brim
G1 X206.013 Y59.177 E.04782 ; brim
G1 X207.213 Y59.376 E.04863 ; brim
G1 X208.389 Y59.679 E.04855 ; brim
G1 X209.526 Y60.084 E.04826 ; brim
G1 X210.664 Y60.61 E.05012 ; brim
G1 X211.763 Y61.243 E.05071 ; brim
G1 X213.624 Y62.684 E.0941 ; brim
G1 X214.522 Y63.597 E.0512 ; brim
G1 X215.307 Y64.555 E.04952 ; brim
G1 X216.037 Y65.639 E.05225 ; brim
G1 X216.65 Y66.763 E.05119 ; brim
G1 X217.456 Y68.852 E.08952 ; brim
G1 X217.758 Y70.104 E.05149 ; brim
G1 X217.933 Y71.275 E.04734 ; brim
G1 X218.007 Y72.58 E.05226 ; brim
G1 X218 Y113.196 E1.62389 ; brim
G1 X217.708 Y115.54 E.09444 ; brim
G1 X217.079 Y117.631 E.0873 ; brim
G1 X216.531 Y118.852 E.05351 ; brim
G1 X215.866 Y120.02 E.05374 ; brim
G1 X214.815 Y121.444 E.07076 ; brim
G1 X213.802 Y122.527 E.05929 ; brim
G1 X212.696 Y123.476 E.05827 ; brim
G1 X211.501 Y124.298 E.05799 ; brim
G1 X210.211 Y124.995 E.05862 ; brim
G1 X208.857 Y125.548 E.05848 ; brim
G1 X207.453 Y125.951 E.0584 ; brim
G1 X206.001 Y126.204 E.05893 ; brim
G1 X204.521 Y126.299 E.05929 ; brim
G1 X163.684 Y126.281 E1.63272 ; brim
G1 X162.486 Y126.164 E.04813 ; brim
G1 X161.32 Y125.95 E.0474 ; brim
G1 X159.177 Y125.259 E.09002 ; brim
G1 X158.089 Y124.749 E.04804 ; brim
G1 X157.042 Y124.143 E.04837 ; brim
G1 X155.641 Y123.105 E.06971 ; brim
G1 X154.56 Y122.094 E.05918 ; brim
G1 X153.611 Y120.989 E.05824 ; brim
G1 X152.79 Y119.794 E.05797 ; brim
G1 X152.093 Y118.504 E.05862 ; brim
G1 X151.54 Y117.15 E.05848 ; brim
G1 X151.133 Y115.731 E.05902 ; brim
G1 X150.884 Y114.294 E.05831 ; brim
G1 X150.788 Y112.817 E.05918 ; brim
G1 X150.798 Y72.116 E1.62729 ; brim
G1 X151.086 Y69.84 E.09172 ; brim
G1 X151.716 Y67.75 E.08728 ; brim
G1 X152.137 Y66.809 E.04122 ; brim
M204 S1000 ; adjust acceleration
G1 X152.471 Y66.959 F7800 ; move to first brim point
M204 S500 ; adjust acceleration
G1 F1200
G1 X152.594 Y66.686 E.01197 ; brim
G1 X153.241 Y65.551 E.05223 ; brim
G1 X154.268 Y64.163 E.06903 ; brim
G1 X155.249 Y63.116 E.05736 ; brim
G1 X156.255 Y62.246 E.05318 ; brim
G1 X157.324 Y61.495 E.05223 ; brim
G1 X158.484 Y60.841 E.05324 ; brim
G1 X159.708 Y60.306 E.05341 ; brim
G1 X160.957 Y59.902 E.05248 ; brim
G1 X162.257 Y59.621 E.05318 ; brim
G1 X163.564 Y59.473 E.05259 ; brim
G1 X204.8 Y59.456 E1.64868 ; brim
G1 X205.961 Y59.54 E.04654 ; brim
G1 X207.146 Y59.736 E.04802 ; brim
G1 X208.289 Y60.032 E.04721 ; brim
G1 X209.395 Y60.427 E.04696 ; brim
G1 X210.503 Y60.939 E.0488 ; brim
G1 X211.569 Y61.554 E.0492 ; brim
G1 X213.389 Y62.966 E.0921 ; brim
G1 X214.255 Y63.847 E.04939 ; brim
G1 X215.018 Y64.781 E.04822 ; brim
G1 X215.72 Y65.822 E.0502 ; brim
G1 X216.312 Y66.906 E.04938 ; brim
G1 X217.109 Y68.972 E.08853 ; brim
G1 X217.397 Y70.166 E.04911 ; brim
G1 X217.567 Y71.305 E.04604 ; brim
G1 X217.64 Y72.585 E.05126 ; brim
G1 X217.634 Y113.185 E1.62325 ; brim
G1 X217.351 Y115.459 E.09162 ; brim
G1 X216.735 Y117.504 E.08539 ; brim
G1 X216.201 Y118.694 E.05215 ; brim
G1 X215.553 Y119.829 E.05225 ; brim
G1 X214.527 Y121.217 E.06901 ; brim
G1 X213.541 Y122.269 E.05765 ; brim
G1 X212.465 Y123.191 E.05665 ; brim
G1 X211.302 Y123.99 E.05641 ; brim
G1 X210.046 Y124.668 E.05707 ; brim
G1 X208.728 Y125.205 E.0569 ; brim
G1 X207.362 Y125.596 E.05681 ; brim
G1 X205.948 Y125.841 E.05738 ; brim
G1 X204.516 Y125.933 E.05737 ; brim
G1 X163.71 Y125.915 E1.63148 ; brim
G1 X162.545 Y125.803 E.04679 ; brim
G1 X161.398 Y125.592 E.04663 ; brim
G1 X159.322 Y124.922 E.08722 ; brim
G1 X158.252 Y124.42 E.04725 ; brim
G1 X157.235 Y123.831 E.04699 ; brim
G1 X155.867 Y122.817 E.06808 ; brim
G1 X154.818 Y121.834 E.05748 ; brim
G1 X153.896 Y120.758 E.05665 ; brim
G1 X153.097 Y119.595 E.05641 ; brim
G1 X152.42 Y118.339 E.05705 ; brim
G1 X151.883 Y117.021 E.0569 ; brim
G1 X151.492 Y115.658 E.05669 ; brim
G1 X151.249 Y114.261 E.05669 ; brim
G1 X151.154 Y112.811 E.0581 ; brim
G1 X151.163 Y72.15 E1.62569 ; brim
G1 X151.444 Y69.921 E.08982 ; brim
G1 X152.06 Y67.877 E.08535 ; brim
G1 X152.447 Y67.014 E.03781 ; brim
M204 S1000 ; adjust acceleration
G1 X152.781 Y67.164 F7800 ; move to first brim point
M204 S500 ; adjust acceleration
G1 F1200
G1 X152.924 Y66.845 E.01398 ; brim
G1 X153.554 Y65.742 E.05079 ; brim
G1 X154.556 Y64.39 E.06728 ; brim
G1 X155.509 Y63.374 E.05569 ; brim
G1 X156.487 Y62.53 E.05165 ; brim
